Newaita-dark/actions/16/draw-bezier-curves.svg

<?xml version="1.0" encoding="UTF-8"?>
<svg xmlns="http://www.w3.org/2000/svg" xmlns:xlink="http://www.w3.org/1999/xlink" width="16pt" height="16pt" viewBox="0 0 16 16" version="1.1">
<g id="surface1">
<path style=" stroke:none;fill-rule:nonzero;fill:rgb(47.058824%,56.470591%,61.176473%);fill-opacity:1;" d="M 0.660156 2.441406 C 2.355469 5.265625 3.808594 8.089844 2.960938 10.710938 C 2.964844 10.710938 2.972656 10.710938 2.976562 10.710938 C 3.414062 10.710938 3.820312 10.828125 4.167969 11.035156 C 5.089844 8.734375 4.144531 6.261719 2.753906 3.761719 L 10.914062 3.761719 L 10.914062 2.441406 Z M 4.207031 11.0625 C 4.210938 11.0625 4.210938 11.0625 4.214844 11.066406 C 4.210938 11.0625 4.210938 11.0625 4.207031 11.0625 Z M 4.253906 11.089844 C 4.253906 11.09375 4.257812 11.09375 4.257812 11.09375 C 4.257812 11.09375 4.253906 11.09375 4.253906 11.089844 Z M 4.296875 11.121094 C 4.300781 11.121094 4.300781 11.125 4.304688 11.125 C 4.300781 11.125 4.300781 11.121094 4.296875 11.121094 Z M 4.339844 11.152344 C 4.34375 11.152344 4.34375 11.15625 4.347656 11.15625 C 4.34375 11.15625 4.34375 11.152344 4.339844 11.152344 Z M 4.382812 11.183594 C 4.386719 11.183594 4.386719 11.1875 4.390625 11.1875 C 4.386719 11.1875 4.386719 11.183594 4.382812 11.183594 Z M 4.425781 11.21875 C 4.429688 11.21875 4.429688 11.21875 4.433594 11.222656 C 4.429688 11.21875 4.429688 11.21875 4.425781 11.21875 Z M 4.46875 11.25 C 4.46875 11.253906 4.472656 11.253906 4.472656 11.257812 C 4.472656 11.253906 4.46875 11.253906 4.46875 11.25 Z M 4.507812 11.285156 C 4.511719 11.289062 4.511719 11.289062 4.515625 11.292969 C 4.511719 11.289062 4.511719 11.289062 4.507812 11.285156 Z M 4.550781 11.324219 C 4.550781 11.324219 4.550781 11.324219 4.554688 11.328125 C 4.550781 11.324219 4.550781 11.324219 4.550781 11.324219 Z M 4.589844 11.359375 C 4.589844 11.359375 4.589844 11.363281 4.59375 11.363281 C 4.589844 11.363281 4.589844 11.359375 4.589844 11.359375 Z M 4.628906 11.398438 C 4.628906 11.398438 4.628906 11.398438 4.628906 11.402344 C 4.628906 11.398438 4.628906 11.398438 4.628906 11.398438 Z M 5.195312 12.363281 C 5.257812 12.574219 5.292969 12.792969 5.292969 13.023438 C 5.292969 13.253906 5.257812 13.476562 5.195312 13.6875 L 7.9375 13.6875 L 7.9375 12.363281 Z M 5.195312 12.363281 "/>
<path style=" stroke:none;fill-rule:nonzero;fill:rgb(74.117649%,74.117649%,74.117649%);fill-opacity:1;" d="M 8.929688 10.710938 C 8.378906 10.710938 7.9375 11.152344 7.9375 11.703125 L 7.9375 14.347656 C 7.9375 14.898438 8.378906 15.339844 8.929688 15.339844 L 11.578125 15.339844 C 12.125 15.339844 12.570312 14.898438 12.570312 14.347656 L 12.570312 11.703125 C 12.570312 11.152344 12.125 10.710938 11.578125 10.710938 Z M 9.59375 11.703125 L 10.914062 11.703125 C 11.28125 11.703125 11.578125 11.996094 11.578125 12.363281 L 11.578125 13.6875 C 11.578125 14.050781 11.28125 14.347656 10.914062 14.347656 L 9.59375 14.347656 C 9.226562 14.347656 8.929688 14.050781 8.929688 13.6875 L 8.929688 12.363281 C 8.929688 11.996094 9.226562 11.703125 9.59375 11.703125 Z M 9.59375 11.703125 "/>
<path style=" stroke:none;fill-rule:nonzero;fill:rgb(74.117649%,74.117649%,74.117649%);fill-opacity:1;" d="M 2.976562 10.710938 C 1.695312 10.710938 0.660156 11.742188 0.660156 13.023438 C 0.660156 14.308594 1.695312 15.339844 2.976562 15.339844 C 4.257812 15.339844 5.292969 14.308594 5.292969 13.023438 C 5.292969 11.742188 4.257812 10.710938 2.976562 10.710938 Z M 2.976562 11.703125 C 3.710938 11.703125 4.300781 12.292969 4.300781 13.023438 C 4.300781 13.757812 3.710938 14.347656 2.976562 14.347656 C 2.242188 14.347656 1.652344 13.757812 1.652344 13.023438 C 1.652344 12.292969 2.242188 11.703125 2.976562 11.703125 Z M 2.976562 11.703125 "/>
<path style=" stroke:none;fill-rule:nonzero;fill:rgb(74.117649%,74.117649%,74.117649%);fill-opacity:1;" d="M 12.898438 0.785156 C 11.617188 0.785156 10.585938 1.820312 10.585938 3.101562 C 10.585938 4.382812 11.617188 5.417969 12.898438 5.417969 C 14.183594 5.417969 15.214844 4.382812 15.214844 3.101562 C 15.214844 1.820312 14.183594 0.785156 12.898438 0.785156 Z M 12.898438 1.777344 C 13.632812 1.777344 14.222656 2.367188 14.222656 3.101562 C 14.222656 3.835938 13.632812 4.425781 12.898438 4.425781 C 12.167969 4.425781 11.578125 3.835938 11.578125 3.101562 C 11.578125 2.367188 12.167969 1.777344 12.898438 1.777344 Z M 12.898438 1.777344 "/>
</g>
</svg>

<svg xmlns="http://www.w3.org/2000/svg" width="16pt" height="16pt" viewBox="0 0 16 16"><path d="M.66 2.441c1.695 2.825 3.149 5.649 2.3 8.27h.017c.437 0 .843.117 1.191.324.922-2.3-.023-4.773-1.414-7.273h8.16v-1.32zm3.547 8.621c.004 0 .004 0 .008.004-.004-.004-.004-.004-.008-.004zm.047.028c0 .004.004.004.004.004s-.004 0-.004-.004zm.043.031c.004 0 .004.004.008.004-.004 0-.004-.004-.008-.004zm.043.031c.004 0 .004.004.008.004-.004 0-.004-.004-.008-.004zm.043.032c.004 0 .004.004.008.004-.004 0-.004-.004-.008-.004zm.043.035c.004 0 .004 0 .008.004-.004-.004-.004-.004-.008-.004zm.043.031c0 .004.004.004.004.008 0-.004-.004-.004-.004-.008zm.039.035l.008.008-.008-.008zm.043.04l.004.003-.004-.004zm.039.034s0 .004.004.004c-.004 0-.004-.004-.004-.004zm.039.04v-.001zm.566.964a2.307 2.307 0 0 1 0 1.325h2.742v-1.325zm0 0" fill="#78909c"/><path d="M8.93 10.71a.989.989 0 0 0-.992.993v2.645c0 .55.44.992.992.992h2.648a.991.991 0 0 0 .992-.992v-2.645a.991.991 0 0 0-.992-.992zm.664.993h1.32a.66.66 0 0 1 .664.66v1.325c0 .363-.297.66-.664.66h-1.32a.663.663 0 0 1-.664-.66v-1.325a.66.66 0 0 1 .664-.66zm0 0M2.977 10.71A2.31 2.31 0 0 0 .66 13.024a2.311 2.311 0 0 0 2.317 2.317 2.311 2.311 0 0 0 2.316-2.317 2.31 2.31 0 0 0-2.316-2.312zm0 .993c.734 0 1.324.59 1.324 1.32a1.32 1.32 0 0 1-1.324 1.325 1.32 1.32 0 0 1-1.325-1.325c0-.73.59-1.32 1.325-1.32zm0 0M12.898.785a2.31 2.31 0 0 0-2.312 2.317 2.31 2.31 0 0 0 2.312 2.316 2.311 2.311 0 0 0 2.317-2.316A2.311 2.311 0 0 0 12.898.785zm0 .992c.735 0 1.325.59 1.325 1.325a1.32 1.32 0 0 1-1.325 1.324c-.73 0-1.32-.59-1.32-1.324 0-.735.59-1.325 1.32-1.325zm0 0" fill="#bdbdbd"/></svg>
